shader_type spatial;
// Placeholder shader to stop Godot Editor 'Failed loading resource' errors. 
// This file was previously misnamed and contained GLSL code.
// The actual compute shader logic has been moved to:
// res://addons/foveacore/shaders/gpu_culling_compute.glsl
